assets/icons/file-attachement.svg

<svg width="20" height="20" viewBox="0 0 20 20" fill="none" xmlns="http://www.w3.org/2000/svg">
<path d="M3.60059 10.0002V12.0362C3.60059 14.6321 3.60059 15.9297 4.30937 16.8089C4.45252 16.9864 4.61424 17.1481 4.79177 17.2913C5.67255 18.0001 6.96933 18.0001 9.56528 18.0001C10.1293 18.0001 10.4117 18.0001 10.6701 17.9089C10.7234 17.8907 10.7759 17.8691 10.8277 17.8441C11.0757 17.7257 11.2749 17.5257 11.674 17.1273L15.4628 13.3378C15.926 12.8754 16.1564 12.6442 16.2788 12.3498C16.4004 12.0562 16.4004 11.729 16.4004 11.0754V8.40024C16.4004 5.3843 16.4004 3.87552 15.4628 2.93794C14.6156 2.08995 13.302 2.00995 10.8285 2.00195M10.8005 17.6001V17.2001C10.8005 14.9377 10.8005 13.8066 11.5037 13.1042C12.206 12.4002 13.338 12.4002 15.6004 12.4002H16.0004" stroke="currentColor" stroke-width="1.2" stroke-linecap="round" stroke-linejoin="round"/>
<path d="M3.60059 6.98391V4.76875C3.60059 3.23998 4.85416 2 6.40054 2C7.94691 2 9.20049 3.23998 9.20049 4.76795V7.8159C9.19944 7.9987 9.1624 8.1795 9.09148 8.34798C9.02055 8.51646 8.91714 8.66933 8.78714 8.79784C8.65714 8.92635 8.5031 9.028 8.33381 9.09699C8.16453 9.16597 7.98331 9.20093 7.80051 9.19988C7.61772 9.20093 7.4365 9.16597 7.26722 9.09699C7.09793 9.028 6.94389 8.92635 6.81389 8.79784C6.68389 8.66933 6.58047 8.51646 6.50955 8.34798C6.43863 8.1795 6.40159 7.9987 6.40054 7.8159V4.76795" stroke="currentColor" stroke-width="1.2" stroke-linecap="round" stroke-linejoin="round"/>
</svg>

<svg xmlns="http://www.w3.org/2000/svg" width="20" height="20" fill="none" viewBox="0 0 20 20"><path stroke="currentColor" stroke-linecap="round" stroke-linejoin="round" stroke-width="1.2" d="M3.6 10v2.036c0 2.596 0 3.894.71 4.773q.215.267.482.482c.88.71 2.177.71 4.773.71.564 0 .847 0 1.105-.092q.08-.027.158-.065c.248-.118.447-.318.846-.717l3.789-3.79c.463-.462.693-.693.816-.987.121-.294.121-.621.121-1.275V8.4c0-3.016 0-4.524-.937-5.462-.847-.848-2.161-.928-4.634-.936M10.8 17.6v-.4c0-2.262 0-3.393.704-4.096.702-.704 1.834-.704 4.096-.704h.4"/><path stroke="currentColor" stroke-linecap="round" stroke-linejoin="round" stroke-width="1.2" d="M3.6 6.984V4.769C3.6 3.24 4.855 2 6.4 2c1.547 0 2.8 1.24 2.8 2.768v3.048A1.39 1.39 0 0 1 7.8 9.2a1.39 1.39 0 0 1-1.4-1.384V4.768"/></svg>
